src/assets/icons/fa/commenting-o.svg

<?xml version="1.0" encoding="utf-8"?>
<svg width="1792" height="1792" viewBox="0 0 1792 1792" xmlns="http://www.w3.org/2000/svg"><path d="M640 896q0 53-37.5 90.5t-90.5 37.5-90.5-37.5-37.5-90.5 37.5-90.5 90.5-37.5 90.5 37.5 37.5 90.5zm384 0q0 53-37.5 90.5t-90.5 37.5-90.5-37.5-37.5-90.5 37.5-90.5 90.5-37.5 90.5 37.5 37.5 90.5zm384 0q0 53-37.5 90.5t-90.5 37.5-90.5-37.5-37.5-90.5 37.5-90.5 90.5-37.5 90.5 37.5 37.5 90.5zm-512-512q-204 0-381.5 69.5t-282 187.5-104.5 255q0 112 71.5 213.5t201.5 175.5l87 50-27 96q-24 91-70 172 152-63 275-171l43-38 57 6q69 8 130 8 204 0 381.5-69.5t282-187.5 104.5-255-104.5-255-282-187.5-381.5-69.5zm896 512q0 174-120 321.5t-326 233-450 85.5q-70 0-145-8-198 175-460 242-49 14-114 22h-5q-15 0-27-10.5t-16-27.5v-1q-3-4-.5-12t2-10 4.5-9.5l6-9 7-8.5 8-9q7-8 31-34.5t34.5-38 31-39.5 32.5-51 27-59 26-76q-157-89-247.5-220t-90.5-281q0-130 71-248.5t191-204.5 286-136.5 348-50.5 348 50.5 286 136.5 191 204.5 71 248.5z"/></svg>

<svg width="1792" height="1792" xmlns="http://www.w3.org/2000/svg"><path d="M640 896q0 53-37.5 90.5T512 1024t-90.5-37.5T384 896t37.5-90.5T512 768t90.5 37.5T640 896zm384 0q0 53-37.5 90.5T896 1024t-90.5-37.5T768 896t37.5-90.5T896 768t90.5 37.5T1024 896zm384 0q0 53-37.5 90.5T1280 1024t-90.5-37.5T1152 896t37.5-90.5T1280 768t90.5 37.5T1408 896zM896 384q-204 0-381.5 69.5T232.5 641 128 896q0 112 71.5 213.5T401 1285l87 50-27 96q-24 91-70 172 152-63 275-171l43-38 57 6q69 8 130 8 204 0 381.5-69.5t282-187.5T1664 896t-104.5-255-282-187.5T896 384zm896 512q0 174-120 321.5t-326 233-450 85.5q-70 0-145-8-198 175-460 242-49 14-114 22h-5q-15 0-27-10.5t-16-27.5v-1q-3-4-.5-12t2-10 4.5-9.5l6-9 7-8.5 8-9q7-8 31-34.5t34.5-38 31-39.5 32.5-51 27-59 26-76q-157-89-247.5-220T0 896q0-130 71-248.5T262 443t286-136.5T896 256t348 50.5T1530 443t191 204.5 71 248.5z"/></svg>
